X:1
T:Title
L:1/8
M:2/4
K:D
V:1 treble nm="Grand Piano"
V:1
 z2 z[Q:1/4=100] F- | F F2 F | ED EF | D2 A,2 | D2 E2 | F2 G2 | A2 G2 | F2 F2 | F F2 F | ED EF | %10
 D2 A,2 | D2 E2 | F2 G2 | A2 G2 | F4 | E F2 G | A2 GF | F2 EE | D2 CC | G4- | G4 | D G2 A | B2 AG | %23
 G2 FF | E2 DD | A4- | A4 | A2 F2 | F2 ED | DE ED |[M:1/4] D2 | AB |[M:2/4] c3 B | B2 G2- | %34
 G B2 A | AF AB | c3 B | B2 G2 | G B2 A | A2 EF | G3 G | G2 G2 | G G2 A | FE FG | A3 A | A3 A- | %46
 A A2 B | G2 EF | G3 F | F2 D2 | D E2 F | D4 |] %52

